X:1
T:Filli gentil
T:Filli gentil
T:Giovanni Maria Artusi
T:Source : Canzonette a 4 voci---Libro primo---Venetia---G.Vincenti-1598. Editor : André Vierendeels (19/02/14).
C:Giovanni Maria Artusi
%%score [ 1 2 3 4 ]
L:1/8
Q:1/4=80
M:4/4
K:F
V:1 treble nm="Canto 1" snm="C 1"
V:2 treble nm="Canto 2" snm="C 2"
V:3 treble nm="Alto" snm="A"
V:4 treble-8 nm="Tenor" snm="T"
V:1
 B6 AG | A4 A4 | G8- | G4 ^F4 | d4 d2 d2 | d2 e2 f4 | f2 f4 d2 | d4 d4 | z4 d4- | d2 cB c4- | %10
w: Fil- li gen-|til pian-|ge-|* a,|mi- ran- d'il|suo bel Tir-|si le di-|ce- a,|Fil-|* li gen- til|
 c2 B2 B2 AG | A8 | =B4 B2 B2 | =B2 c2 d4 | d2 c4 B2 | A4 A4 | z8 | z8 | z8 | f2 f2 f2 ed | c8 | %21
w: _ pian- ge- * *|a,|mi- ran- d'il|suo bel Tir-|si le di-|ce- a,||||las- cia- re- te- mi|voi,|
 g2 g2 g2 fe | d8- | d4 d4 | _e4 e4 | d8 | d8 | z4 f2 f2 | f2 ed c4 | z8 | B2 B2 B2 AG | A4 =B4 | %32
w: las- cia- re- te- mi|voi|_ per|nov' a-|mo-|re,|las- cia-|re- te- mi voi||las- cia- re- te- mi|voi per|
 c6 B2 | A2 B2 A4 | =B8 |] %35
w: nov' a-|mo- * *|re.|
V:2
 z4 d4- | d2 cB c4- | c2 B2 B2 AG | A8 | =B4 B2 B2 | =B2 c2 d4 | d2 c4 B2 | A4 A4 | B6 AG | A4 A4 | %10
w: Fil-|* li gen- til|_ pian- ge- * *|a,|mi- ran- d'il|suo bel Tir-|si le di-|ce- a,|Fil- li gen-|til di-|
 G8- | G4 ^F4 | d4 d2 d2 | d2 e2 f4 | f2 f4 d2 | d4 d4 | B4 B2 B2 | B3 B c2 d2 | c2 B2 c4 | d8 | %20
w: ce-|* a,|mi- ran- d'il|suo bel Tir-|si le di-|ce- a,|hor ch'io u'ho|dat' o mio bel|Tir- s'il co-|re,|
 z4 c2 c2 | c2 BA c4 | B2 B2 B2 AG | A4 =B4 | c6 B2 | A2 B2 A4 | B4 B2 B2 | B2 AG A4 | z8 | %29
w: las- cia-|re- te- mi voi,|las- cia re- te- mi|voi per|nov' a-|mo- * *|re, las- cia-|re- te- mi voi,||
 g2 g2 g2 fe | d8- | d4 d4 | _e4 e4 | d8 | d8 |] %35
w: las- cia- re- te- mi|voi|_ per|nov' a-|mo-|re.|
V:3
 G6 FE | F6 C2 | _E8 | D8 | G4 G2 G2 | G2 G2 B4 | B2 A4 G2 | ^F4 F4 | G6 FE | F6 C2 | _E8 | D8 | %12
w: Fil- li gen-|til pian-|ge-|a,|mi- ran- d'il|suo bel Tir-|si le di-|ce- a,|Fil- li gen-|til di-|ce-|a,|
 G4 G2 G2 | G2 G2 B4 | B2 A4 G2 | ^F4 F4 | G4 G2 G2 | G3 ^F G2 B2 | A2 G2 A4 | B8 | A2 A2 A2 GF | %21
w: mi- ran- d'il|suo bel Tir-|si le di-|ce- a,|hor ch'io u'ho|dat' o mio bel|Tir- s'il co-|re,|las- cia- re- te- mi|
 E8 | z8 | ^F2 F2 G2 GG | G2 G2 G4 | ^F2 G4 F2 | G4 G2 G2 | G2 FE F4 | A2 A2 A2 GF | E8 | z8 | %31
w: voi,||las- cia- re- te- mi|voi per nov'|a- mo- *|re, las- cia-|re- te- mi voi,|las- cia- re- te- mi|voi||
 ^F2 F2 G2 GG | G2 G2 G4 | ^F2 G4 F2 | G8 |] %35
w: las- cia- re- te- mi|voi per nov'|a- mo- *|re.|
V:4
 z8 | z8 | z8 | z8 | G4 G2 G2 | G2 c2 B4 | B2 f4 g2 | d4 d4 | z8 | z8 | z8 | z8 | G4 G2 G2 | %13
w: ||||Mi- ran- d'il|suo bel Tir-|si le di-|ce- a,|||||mi- ran- d'il|
 G2 c2 B4 | B2 f4 g2 | d4 d4 | _e4 e2 e2 | _e3 d c2 B2 | f2 g2 f4 | B8 | f2 f2 f2 ed | c8 | %22
w: suo bel Tir-|si le di-|ce- a,|hor ch'io u'ho|dat' o mio bel|Tir- s'il co-|re,|las- cia- re- te- mi|voi,|
 g2 g2 g2 fe | d4 G4 | c4 c4 | d8 | G8 | z8 | f2 f2 f2 ed | c8 | g2 g2 g2 fe | d4 G4 | c4 c4 | d8 | %34
w: las- cia- re- te- mi|voi per|nov' a-|mo-|re,||las- cia- re- te- mi|voi,|las- cia- re- te- mi|voi per|nov' a-|mo-|
 G8 |] %35
w: re.|

